web/workspace/public/newassets/icon-protection-of-human-rights.svg

<svg enable-background="new 0 0 167 167" viewBox="0 0 167 167" xmlns="http://www.w3.org/2000/svg"><g fill="#04111d"><path d="m83.3 167.3c-46 0-83.4-37.4-83.4-83.4s37.4-83.4 83.4-83.4 83.4 37.4 83.4 83.4-37.4 83.4-83.4 83.4zm0-163.5c-44.2 0-80.1 36-80.1 80.1s35.9 80.1 80.1 80.1 80.1-35.9 80.1-80.1c0-44.1-36-80.1-80.1-80.1z"/><path d="m61.1 88.6h-1.3c-.9 0-1.7-.7-1.7-1.7s.7-1.7 1.7-1.7h1.3c.9 0 1.7.7 1.7 1.7s-.7 1.7-1.7 1.7z"/><path d="m86.4 88.6h-20.1c-.9 0-1.7-.7-1.7-1.7s.7-1.7 1.7-1.7h18.4v-2.9h-53.8v2.9h23.5c.9 0 1.7.7 1.7 1.7s-.7 1.7-1.7 1.7h-25.2c-.9 0-1.7-.7-1.7-1.7v-6.2c0-.9.7-1.7 1.7-1.7h57.1c.9 0 1.7.7 1.7 1.7v6.3c.1.9-.7 1.6-1.6 1.6z"/><path d="m80.2 63.9c-.9 0-1.7-.7-1.7-1.7v-1c0-.9.7-1.7 1.7-1.7.9 0 1.7.7 1.7 1.7v1c-.1.9-.8 1.7-1.7 1.7z"/><path d="m86.4 88.7h-6.2c-.9 0-1.7-.7-1.7-1.7v-20.1c0-.9.7-1.7 1.7-1.7.9 0 1.7.7 1.7 1.7v18.4h2.9v-53.7h-2.9v23.8c0 .9-.7 1.7-1.7 1.7-.9 0-1.7-.7-1.7-1.7v-25.5c0-.9.7-1.7 1.7-1.7h6.2c.9 0 1.7.7 1.7 1.7v57.1c0 1-.8 1.7-1.7 1.7z"/><path d="m107.4 82.4h-1.7c-.9 0-1.7-.7-1.7-1.7 0-.9.7-1.7 1.7-1.7h1.7c.9 0 1.7.7 1.7 1.7s-.8 1.7-1.7 1.7z"/><path d="m137.3 88.6h-57.1c-.9 0-1.7-.7-1.7-1.7v-6.2c0-.9.7-1.7 1.7-1.7h19.5c.9 0 1.7.7 1.7 1.7 0 .9-.7 1.7-1.7 1.7h-17.9v2.9h53.8v-2.9h-23c-.9 0-1.7-.7-1.7-1.7 0-.9.7-1.7 1.7-1.7h24.7c.9 0 1.7.7 1.7 1.7v6.3c0 .9-.8 1.6-1.7 1.6z"/><path d="m86.4 139.6h-6.2c-.9 0-1.7-.7-1.7-1.7v-57.1c0-.9.7-1.7 1.7-1.7h6.2c.9 0 1.7.7 1.7 1.7v21.2c0 .9-.7 1.7-1.7 1.7s-1.7-.7-1.7-1.7v-19.6h-2.9v53.8h2.9v-23.6c0-.9.7-1.7 1.7-1.7s1.7.7 1.7 1.7v25.2c0 1-.8 1.8-1.7 1.8z"/><path d="m86.4 109.8c-.9 0-1.7-.7-1.7-1.7v-.5c0-.9.7-1.7 1.7-1.7s1.7.7 1.7 1.7v.5c0 1-.8 1.7-1.7 1.7z"/></g><path d="m32.7 62.3c-1.9 0-3.5 1.6-3.5 3.5v21.2h20.6v-10.9c0-1.9 1.6-3.5 3.5-3.5 1.9 0 3.5-1.6 3.5-3.5v-18.9c0-1.8-1.5-3.3-3.3-3.3h-13.9c-1.8 0-3.3 1.5-3.3 3.3v8.6c0 2-1.6 3.5-3.6 3.5z" fill="#f34b00"/><path d="m36.7 82h-.8c-.9 0-1.7-.7-1.7-1.7s.7-1.7 1.7-1.7h.8c.9 0 1.7.7 1.7 1.7s-.7 1.7-1.7 1.7z" fill="#fff" opacity=".25"/><path d="m49.6 82h-7.5c-.9 0-1.7-.7-1.7-1.7s.7-1.7 1.7-1.7h7.5c.9 0 1.7.7 1.7 1.7s-.8 1.7-1.7 1.7z" fill="#fff" opacity=".25"/><path d="m104.8 33.4c0-1.9-1.6-3.5-3.5-3.5h-21.1v20.6h10.9c1.9 0 3.5 1.6 3.5 3.5 0 1.9 1.6 3.5 3.5 3.5h18.9c1.8 0 3.3-1.5 3.3-3.3v-13.9c0-1.8-1.5-3.3-3.3-3.3h-8.6c-2-.1-3.6-1.6-3.6-3.6z" fill="#f34b00"/><path d="m133.8 105.5c1.9 0 3.5-1.6 3.5-3.5v-21.2h-20.6v10.9c0 1.9-1.6 3.5-3.5 3.5-1.9 0-3.5 1.6-3.5 3.5v18.9c0 1.8 1.5 3.3 3.3 3.3h14c1.8 0 3.3-1.5 3.3-3.3v-8.6c0-2 1.6-3.5 3.5-3.5z" fill="#f34b00"/><path d="m61.7 134.4c0 1.9 1.6 3.5 3.5 3.5h21.2v-20.6h-10.9c-1.9 0-3.5-1.6-3.5-3.5 0-1.9-1.6-3.5-3.5-3.5h-18.9c-1.8 0-3.3 1.5-3.3 3.3v13.9c0 1.8 1.5 3.3 3.3 3.3h8.6c1.9.1 3.5 1.7 3.5 3.6z" fill="#f34b00"/><circle cx="83.3" cy="83.6" fill="#f8f7f5" r="12.4"/><path d="m83.3 97.7c-7.8 0-14.1-6.3-14.1-14.1s6.3-14.1 14.1-14.1 14.1 6.3 14.1 14.1-6.3 14.1-14.1 14.1zm0-24.9c-5.9 0-10.8 4.8-10.8 10.8 0 5.9 4.8 10.8 10.8 10.8 5.9 0 10.8-4.8 10.8-10.8-.1-5.9-4.9-10.8-10.8-10.8z" fill="#04111d"/><path d="m77.5 85.3c-.9 0-1.7-.7-1.7-1.7 0-4.1 3.3-7.4 7.4-7.4.9 0 1.7.7 1.7 1.7s-.7 1.7-1.7 1.7c-2.3 0-4.1 1.8-4.1 4.1.1.8-.7 1.6-1.6 1.6z" fill="#fff"/><path d="m49.8 88.7h-20.6c-.9 0-1.7-.7-1.7-1.7v-21.2c0-2.9 2.3-5.2 5.2-5.2 1 0 1.8-.8 1.8-1.8v-8.6c0-2.8 2.2-5 5-5h13.9c2.8 0 5 2.2 5 5v18.9c0 2.9-2.3 5.2-5.2 5.2-1 0-1.8.8-1.8 1.8v10.9c.1.9-.7 1.7-1.6 1.7zm-18.9-3.4h17.2v-9.2c0-2.9 2.3-5.2 5.2-5.2 1 0 1.8-.8 1.8-1.8v-18.9c0-.9-.7-1.7-1.7-1.7h-13.8c-.9 0-1.7.7-1.7 1.7v8.6c0 2.9-2.3 5.2-5.2 5.2-1 0-1.8.8-1.8 1.8z" fill="#04111d"/><path d="m86.8 39.1c-.9 0-1.7-.7-1.7-1.7v-.8c0-.9.7-1.7 1.7-1.7.9 0 1.7.7 1.7 1.7v.8c0 .9-.7 1.7-1.7 1.7z" fill="#fff" opacity=".25"/><path d="m86.8 51.9c-.9 0-1.7-.7-1.7-1.7v-7.5c0-.9.7-1.7 1.7-1.7.9 0 1.7.7 1.7 1.7v7.5c0 1-.7 1.7-1.7 1.7z" fill="#fff" opacity=".25"/><path d="m117 59.2h-18.9c-2.9 0-5.2-2.3-5.2-5.2 0-1-.8-1.8-1.8-1.8h-10.9c-.9 0-1.7-.7-1.7-1.7v-20.6c0-.9.7-1.7 1.7-1.7h21.2c2.9 0 5.2 2.3 5.2 5.2 0 1 .8 1.8 1.8 1.8h8.6c2.8 0 5 2.2 5 5v13.9c0 2.8-2.3 5.1-5 5.1zm-35.2-10.4h9.2c2.9 0 5.2 2.3 5.2 5.2 0 1 .8 1.8 1.8 1.8h19c.9 0 1.7-.7 1.7-1.7v-13.8c0-.9-.7-1.7-1.7-1.7h-8.6c-2.9 0-5.2-2.3-5.2-5.2 0-1-.8-1.8-1.8-1.8h-19.6z" fill="#04111d"/><path d="m130.6 89.1h-.8c-.9 0-1.7-.7-1.7-1.7s.7-1.7 1.7-1.7h.8c.9 0 1.7.7 1.7 1.7s-.7 1.7-1.7 1.7z" fill="#fff" opacity=".25"/><path d="m124.5 89.1h-7.5c-.9 0-1.7-.7-1.7-1.7s.7-1.7 1.7-1.7h7.5c.9 0 1.7.7 1.7 1.7s-.8 1.7-1.7 1.7z" fill="#fff" opacity=".25"/><path d="m127 122.6h-13.9c-2.8 0-5-2.2-5-5v-18.9c0-2.9 2.3-5.2 5.2-5.2 1 0 1.8-.8 1.8-1.8v-10.9c0-.9.7-1.7 1.7-1.7h20.6c.9 0 1.7.7 1.7 1.7v21.2c0 2.9-2.3 5.2-5.2 5.2-1 0-1.8.8-1.8 1.8v8.6c-.1 2.7-2.4 5-5.1 5zm-8.6-40.2v9.2c0 2.9-2.3 5.2-5.2 5.2-1 0-1.8.8-1.8 1.8v18.9c0 .9.8 1.7 1.7 1.7h13.9c.9 0 1.7-.7 1.7-1.7v-8.5c0-2.9 2.3-5.2 5.2-5.2 1 0 1.8-.8 1.8-1.8v-19.6z" fill="#04111d"/><path d="m79.7 132.9c-.9 0-1.7-.7-1.7-1.7v-.8c0-.9.7-1.7 1.7-1.7s1.7.7 1.7 1.7v.8c0 1-.8 1.7-1.7 1.7z" fill="#fff" opacity=".25"/><path d="m79.7 126.8c-.9 0-1.7-.7-1.7-1.7v-7.5c0-.9.7-1.7 1.7-1.7s1.7.7 1.7 1.7v7.5c0 .9-.8 1.7-1.7 1.7z" fill="#fff" opacity=".25"/><path d="m86.4 139.6h-21.2c-2.9 0-5.2-2.3-5.2-5.2 0-1-.8-1.8-1.8-1.8h-8.6c-2.8 0-5-2.2-5-5v-13.9c0-2.8 2.2-5 5-5h18.9c2.9 0 5.2 2.3 5.2 5.2 0 1 .8 1.8 1.8 1.8h10.9c.9 0 1.7.7 1.7 1.7v20.6c0 .8-.8 1.6-1.7 1.6zm-36.8-27.6c-.9 0-1.7.7-1.7 1.7v13.9c0 .9.7 1.7 1.7 1.7h8.6c2.9 0 5.2 2.3 5.2 5.2 0 1 .8 1.8 1.8 1.8h19.5v-17.3h-9.2c-2.9 0-5.2-2.3-5.2-5.2 0-1-.8-1.8-1.8-1.8z" fill="#04111d"/></svg>

<?xml version="1.0" encoding="utf-8"?>
<!-- Generator: Adobe Illustrator 22.1.0, SVG Export Plug-In . SVG Version: 6.00 Build 0)  -->
<svg version="1.1" id="Layer_1" xmlns="http://www.w3.org/2000/svg" xmlns:xlink="http://www.w3.org/1999/xlink" x="0px" y="0px"
	 viewBox="0 0 167 167" style="enable-background:new 0 0 167 167;" xml:space="preserve">
<style type="text/css">
	.st0{fill:#04111D;}
	.st1{fill:#F34B00;}
	.st2{opacity:0.25;}
	.st3{fill:#FFFFFF;}
	.st4{fill:#F8F7F5;}
</style>
<g>
	<path class="st0" d="M83.3,167.3c-46,0-83.4-37.4-83.4-83.4S37.3,0.5,83.3,0.5s83.4,37.4,83.4,83.4S129.3,167.3,83.3,167.3z
		 M83.3,3.8C39.1,3.8,3.2,39.8,3.2,83.9c0,44.1,35.9,80.1,80.1,80.1c44.2,0,80.1-35.9,80.1-80.1C163.4,39.8,127.4,3.8,83.3,3.8z"/>
</g>
<g>
	<path class="st0" d="M61.1,88.6h-1.3c-0.9,0-1.7-0.7-1.7-1.7s0.7-1.7,1.7-1.7h1.3c0.9,0,1.7,0.7,1.7,1.7S62.1,88.6,61.1,88.6z"/>
</g>
<g>
	<path class="st0" d="M86.4,88.6H66.3c-0.9,0-1.7-0.7-1.7-1.7s0.7-1.7,1.7-1.7h18.4v-2.9H30.9v2.9h23.5c0.9,0,1.7,0.7,1.7,1.7
		s-0.7,1.7-1.7,1.7H29.2c-0.9,0-1.7-0.7-1.7-1.7v-6.2c0-0.9,0.7-1.7,1.7-1.7h57.1c0.9,0,1.7,0.7,1.7,1.7V87
		C88.1,87.9,87.3,88.6,86.4,88.6z"/>
</g>
<g>
	<path class="st0" d="M80.2,63.9c-0.9,0-1.7-0.7-1.7-1.7v-1c0-0.9,0.7-1.7,1.7-1.7c0.9,0,1.7,0.7,1.7,1.7v1
		C81.8,63.1,81.1,63.9,80.2,63.9z"/>
</g>
<g>
	<path class="st0" d="M86.4,88.7h-6.2c-0.9,0-1.7-0.7-1.7-1.7V66.9c0-0.9,0.7-1.7,1.7-1.7c0.9,0,1.7,0.7,1.7,1.7v18.4h2.9V31.6h-2.9
		v23.8c0,0.9-0.7,1.7-1.7,1.7c-0.9,0-1.7-0.7-1.7-1.7V29.9c0-0.9,0.7-1.7,1.7-1.7h6.2c0.9,0,1.7,0.7,1.7,1.7V87
		C88.1,88,87.3,88.7,86.4,88.7z"/>
</g>
<g>
	<path class="st0" d="M107.4,82.4h-1.7c-0.9,0-1.7-0.7-1.7-1.7c0-0.9,0.7-1.7,1.7-1.7h1.7c0.9,0,1.7,0.7,1.7,1.7
		C109.1,81.7,108.3,82.4,107.4,82.4z"/>
</g>
<g>
	<path class="st0" d="M137.3,88.6H80.2c-0.9,0-1.7-0.7-1.7-1.7v-6.2c0-0.9,0.7-1.7,1.7-1.7h19.5c0.9,0,1.7,0.7,1.7,1.7
		c0,0.9-0.7,1.7-1.7,1.7H81.8v2.9h53.8v-2.9h-23c-0.9,0-1.7-0.7-1.7-1.7c0-0.9,0.7-1.7,1.7-1.7h24.7c0.9,0,1.7,0.7,1.7,1.7V87
		C139,87.9,138.2,88.6,137.3,88.6z"/>
</g>
<g>
	<path class="st0" d="M86.4,139.6h-6.2c-0.9,0-1.7-0.7-1.7-1.7V80.8c0-0.9,0.7-1.7,1.7-1.7h6.2c0.9,0,1.7,0.7,1.7,1.7V102
		c0,0.9-0.7,1.7-1.7,1.7s-1.7-0.7-1.7-1.7V82.4h-2.9v53.8h2.9v-23.6c0-0.9,0.7-1.7,1.7-1.7s1.7,0.7,1.7,1.7v25.2
		C88.1,138.8,87.3,139.6,86.4,139.6z"/>
</g>
<g>
	<path class="st0" d="M86.4,109.8c-0.9,0-1.7-0.7-1.7-1.7v-0.5c0-0.9,0.7-1.7,1.7-1.7s1.7,0.7,1.7,1.7v0.5
		C88.1,109.1,87.3,109.8,86.4,109.8z"/>
</g>
<g>
	<path class="st1" d="M32.7,62.3L32.7,62.3c-1.9,0-3.5,1.6-3.5,3.5V87h20.6V76.1c0-1.9,1.6-3.5,3.5-3.5h0c1.9,0,3.5-1.6,3.5-3.5
		V50.2c0-1.8-1.5-3.3-3.3-3.3H39.6c-1.8,0-3.3,1.5-3.3,3.3v8.6C36.3,60.8,34.7,62.3,32.7,62.3z"/>
</g>
<g class="st2">
	<path class="st3" d="M36.7,82h-0.8c-0.9,0-1.7-0.7-1.7-1.7s0.7-1.7,1.7-1.7h0.8c0.9,0,1.7,0.7,1.7,1.7S37.7,82,36.7,82z"/>
</g>
<g class="st2">
	<path class="st3" d="M49.6,82h-7.5c-0.9,0-1.7-0.7-1.7-1.7s0.7-1.7,1.7-1.7h7.5c0.9,0,1.7,0.7,1.7,1.7S50.5,82,49.6,82z"/>
</g>
<g>
	<path class="st1" d="M104.8,33.4L104.8,33.4c0-1.9-1.6-3.5-3.5-3.5H80.2v20.6l10.9,0c1.9,0,3.5,1.6,3.5,3.5v0
		c0,1.9,1.6,3.5,3.5,3.5H117c1.8,0,3.3-1.5,3.3-3.3V40.3c0-1.8-1.5-3.3-3.3-3.3h-8.6C106.4,36.9,104.8,35.4,104.8,33.4z"/>
</g>
<g>
	<path class="st1" d="M133.8,105.5L133.8,105.5c1.9,0,3.5-1.6,3.5-3.5V80.8h-20.6v10.9c0,1.9-1.6,3.5-3.5,3.5h0
		c-1.9,0-3.5,1.6-3.5,3.5v18.9c0,1.8,1.5,3.3,3.3,3.3H127c1.8,0,3.3-1.5,3.3-3.3V109C130.3,107,131.9,105.5,133.8,105.5z"/>
</g>
<g>
	<path class="st1" d="M61.7,134.4L61.7,134.4c0,1.9,1.6,3.5,3.5,3.5h21.2v-20.6H75.5c-1.9,0-3.5-1.6-3.5-3.5v0
		c0-1.9-1.6-3.5-3.5-3.5H49.6c-1.8,0-3.3,1.5-3.3,3.3v13.9c0,1.8,1.5,3.3,3.3,3.3h8.6C60.1,130.9,61.7,132.5,61.7,134.4z"/>
</g>
<g>
	<circle class="st4" cx="83.3" cy="83.6" r="12.4"/>
</g>
<g>
	<path class="st0" d="M83.3,97.7c-7.8,0-14.1-6.3-14.1-14.1s6.3-14.1,14.1-14.1s14.1,6.3,14.1,14.1S91.1,97.7,83.3,97.7z M83.3,72.8
		c-5.9,0-10.8,4.8-10.8,10.8c0,5.9,4.8,10.8,10.8,10.8c5.9,0,10.8-4.8,10.8-10.8C94,77.7,89.2,72.8,83.3,72.8z"/>
</g>
<g>
	<path class="st3" d="M77.5,85.3c-0.9,0-1.7-0.7-1.7-1.7c0-4.1,3.3-7.4,7.4-7.4c0.9,0,1.7,0.7,1.7,1.7s-0.7,1.7-1.7,1.7
		c-2.3,0-4.1,1.8-4.1,4.1C79.2,84.5,78.4,85.3,77.5,85.3z"/>
</g>
<g>
	<path class="st0" d="M49.8,88.7H29.2c-0.9,0-1.7-0.7-1.7-1.7V65.8c0-2.9,2.3-5.2,5.2-5.2c1,0,1.8-0.8,1.8-1.8v-8.6c0-2.8,2.2-5,5-5
		h13.9c2.8,0,5,2.2,5,5v18.9c0,2.9-2.3,5.2-5.2,5.2c-1,0-1.8,0.8-1.8,1.8V87C51.5,87.9,50.7,88.7,49.8,88.7z M30.9,85.3h17.2v-9.2
		c0-2.9,2.3-5.2,5.2-5.2c1,0,1.8-0.8,1.8-1.8V50.2c0-0.9-0.7-1.7-1.7-1.7H39.6c-0.9,0-1.7,0.7-1.7,1.7v8.6c0,2.9-2.3,5.2-5.2,5.2
		c-1,0-1.8,0.8-1.8,1.8V85.3z"/>
</g>
<g class="st2">
	<path class="st3" d="M86.8,39.1c-0.9,0-1.7-0.7-1.7-1.7v-0.8c0-0.9,0.7-1.7,1.7-1.7c0.9,0,1.7,0.7,1.7,1.7v0.8
		C88.5,38.3,87.8,39.1,86.8,39.1z"/>
</g>
<g class="st2">
	<path class="st3" d="M86.8,51.9c-0.9,0-1.7-0.7-1.7-1.7v-7.5c0-0.9,0.7-1.7,1.7-1.7c0.9,0,1.7,0.7,1.7,1.7v7.5
		C88.5,51.2,87.8,51.9,86.8,51.9z"/>
</g>
<g>
	<path class="st0" d="M117,59.2H98.1c-2.9,0-5.2-2.3-5.2-5.2c0-1-0.8-1.8-1.8-1.8H80.2c-0.9,0-1.7-0.7-1.7-1.7V29.9
		c0-0.9,0.7-1.7,1.7-1.7h21.2c2.9,0,5.2,2.3,5.2,5.2c0,1,0.8,1.8,1.8,1.8h8.6c2.8,0,5,2.2,5,5v13.9C122,56.9,119.7,59.2,117,59.2z
		 M81.8,48.8h9.2c2.9,0,5.2,2.3,5.2,5.2c0,1,0.8,1.8,1.8,1.8H117c0.9,0,1.7-0.7,1.7-1.7V40.3c0-0.9-0.7-1.7-1.7-1.7h-8.6
		c-2.9,0-5.2-2.3-5.2-5.2c0-1-0.8-1.8-1.8-1.8H81.8V48.8z"/>
</g>
<g class="st2">
	<path class="st3" d="M130.6,89.1h-0.8c-0.9,0-1.7-0.7-1.7-1.7s0.7-1.7,1.7-1.7h0.8c0.9,0,1.7,0.7,1.7,1.7S131.6,89.1,130.6,89.1z"
		/>
</g>
<g class="st2">
	<path class="st3" d="M124.5,89.1H117c-0.9,0-1.7-0.7-1.7-1.7s0.7-1.7,1.7-1.7h7.5c0.9,0,1.7,0.7,1.7,1.7S125.4,89.1,124.5,89.1z"/>
</g>
<g>
	<path class="st0" d="M127,122.6h-13.9c-2.8,0-5-2.2-5-5V98.7c0-2.9,2.3-5.2,5.2-5.2c1,0,1.8-0.8,1.8-1.8V80.8
		c0-0.9,0.7-1.7,1.7-1.7h20.6c0.9,0,1.7,0.7,1.7,1.7v21.2c0,2.9-2.3,5.2-5.2,5.2c-1,0-1.8,0.8-1.8,1.8v8.6
		C132,120.3,129.7,122.6,127,122.6z M118.4,82.4v9.2c0,2.9-2.3,5.2-5.2,5.2c-1,0-1.8,0.8-1.8,1.8v18.9c0,0.9,0.8,1.7,1.7,1.7H127
		c0.9,0,1.7-0.7,1.7-1.7V109c0-2.9,2.3-5.2,5.2-5.2c1,0,1.8-0.8,1.8-1.8V82.4H118.4z"/>
</g>
<g class="st2">
	<path class="st3" d="M79.7,132.9c-0.9,0-1.7-0.7-1.7-1.7v-0.8c0-0.9,0.7-1.7,1.7-1.7s1.7,0.7,1.7,1.7v0.8
		C81.4,132.2,80.6,132.9,79.7,132.9z"/>
</g>
<g class="st2">
	<path class="st3" d="M79.7,126.8c-0.9,0-1.7-0.7-1.7-1.7v-7.5c0-0.9,0.7-1.7,1.7-1.7s1.7,0.7,1.7,1.7v7.5
		C81.4,126,80.6,126.8,79.7,126.8z"/>
</g>
<g>
	<path class="st0" d="M86.4,139.6H65.2c-2.9,0-5.2-2.3-5.2-5.2c0-1-0.8-1.8-1.8-1.8h-8.6c-2.8,0-5-2.2-5-5v-13.9c0-2.8,2.2-5,5-5
		h18.9c2.9,0,5.2,2.3,5.2,5.2c0,1,0.8,1.8,1.8,1.8h10.9c0.9,0,1.7,0.7,1.7,1.7v20.6C88.1,138.8,87.3,139.6,86.4,139.6z M49.6,112
		c-0.9,0-1.7,0.7-1.7,1.7v13.9c0,0.9,0.7,1.7,1.7,1.7h8.6c2.9,0,5.2,2.3,5.2,5.2c0,1,0.8,1.8,1.8,1.8h19.5V119h-9.2
		c-2.9,0-5.2-2.3-5.2-5.2c0-1-0.8-1.8-1.8-1.8H49.6z"/>
</g>
</svg>
